X: 1
T: Glencolmcille
%T: the Front Porch Tune
T: the Fantastic Reel
S: Roaring Jelly handout 2020-1-28
R: reel
Z: 2020 John Chambers <jc:trillian.mit.edu>
B: Brendan Breathnach "Ceol Rince na h\'Eireann" v.3, 1985
M: C|
L: 1/8
K: D
|:\
"D"D3E FEDF | Adcd BAFA | "G"~B3c "Bm"dBAF | "D"FEFE "A"DB,A,B, |
"D"A,DDE FEDF | Adcd BAFA | "G"~B3c dBAF | "A7"FGEF [1 "D"DEDB, :|2 "D"D4 ||
|:\
"D"fded "A7"cAAg | "D"fdef "G"g2ag | "D"fded "A"cAAF | "G"GBAG "D"FDD2 |
"D"fded "A7"cAAg | "D"fdef "G"g2ag | "D"(3agf ge fded | "A7"cABc [1 "D"d4 :|2 "D"dBAF |]\
["Fin" "D"D4 |]
